X: 961
T: Bonintown Well
R: reel
B: Robert Bremner "A Collection of Scots Reels or Country Dances" 1757 p.96 #1
S: http://imslp.org/wiki/A_Collection_of_Scots_Reels_or_Country_Dances_(Bremner,_Robert)
Z: 2013 John Chambers <jc:trillian.mit.edu>
M: C
L: 1/8
K: C
% - - - - - - - - - - - - - - - - - - - - - - - - -
V: 1
|:\
c2ec dBTAG | AcTBA GETE2 |\
c(e/f/ g)e dBTAG | AcTBA GCC2 :|\
ecgc dBgB | cAfA BGTG2 |
AFcF GEcE | FD (G/F/E/D/) ECC2 |\
egcg dgBg | ceAc BGTG2 |\
AcFc GcEc | A(aTgf) ecc2 |]
% - - - - - - - - - - - - - - - - - - - - - - - - -
V: 2 clef=bass middle=d
|:\
c'2c'2 b2b2 | a2a2 c'2c'2 |\
c'2c'2 g2g2 | f2g2 c2c2 :|\
c'2c'2 b2b2 | a2a2 g2g2 |
f2f2 e2c2 | f2g2 c2c2 |\
c'2c'2 b2b2 | a2a2 g2g2 |\
f2f2 e2c2 | f2g2 c2c2 |]
% - - - - - - - - - - - - - - - - - - - - - - - - -

%%sep 1 1 500
%%sep 1 1 500
